X: 20581
M: 6/8
L: 1/8
K: G
[|\
[|\
d2d dcB | e2f g2z | ded dcB | e2f gdB |\
d2d dcB | e2e gfe | ded dcB | G2A BGE |]
|:\


